src/assets/Imgs/sns/done.svg

<svg fill="none" height="33" viewBox="0 0 32 33" width="32" xmlns="http://www.w3.org/2000/svg"><circle cx="16" cy="16.427" fill="#5200ff" r="15" stroke="#38e36f" stroke-width="2"/><g fill="#38e36f"><path d="m10.9102 15.7199c-.3905-.3906-1.02366-.3906-1.41418 0-.39053.3905-.39053 1.0237 0 1.4142zm-1.41418 1.4142 5.29378 5.2938 1.4142-1.4142-5.2938-5.2938z"/><path d="m24.2246 13.0749c.3911-.39.392-1.0231.0021-1.4142-.39-.3911-1.0232-.392-1.4142-.0021zm-1.4121-1.4163-9.3809 9.354 1.4122 1.4163 9.3808-9.354z"/></g></svg>

<svg width="32" height="33" viewBox="0 0 32 33" fill="none" xmlns="http://www.w3.org/2000/svg">
<g id="Group 1209">
<circle id="Ellipse 1059" cx="16" cy="16.427" r="15" fill="#5200FF" stroke="#38E36F" stroke-width="2"/>
<g id="Group 1208">
<path id="Line 23" d="M10.9102 15.7199C10.5197 15.3293 9.88654 15.3293 9.49602 15.7199C9.10549 16.1104 9.10549 16.7436 9.49602 17.1341L10.9102 15.7199ZM9.49602 17.1341L14.7898 22.4279L16.204 21.0137L10.9102 15.7199L9.49602 17.1341Z" fill="#38E36F"/>
<path id="Line 24" d="M24.2246 13.0749C24.6157 12.6849 24.6166 12.0518 24.2267 11.6607C23.8367 11.2696 23.2035 11.2687 22.8125 11.6586L24.2246 13.0749ZM22.8125 11.6586L13.4316 21.0126L14.8438 22.4289L24.2246 13.0749L22.8125 11.6586Z" fill="#38E36F"/>
</g>
</g>
</svg>
